X: 1
T: Garfield's Blackberry Blossom
S: Rustic Roots collection 2020-5-6
R: reel
Z: 2020 John Chambers <jc:trillian.mit.edu>
M: C|
L: 1/8
K: Gmix
|:"G7(#11)"\
gage fgfe | d^cB(d cB)G2 | gagf d=cBc dg2a g2b2- |
bga^f gag=f d^cBd cBG=c | (3BcB GF D=CB,C | DG2A G2G2- :|
|:\
GAB^c d2f2 | d^cBd cBG2- | GAB^c d2f2 | d^cBG G2G2- |
GAB^c d2g2 | d^cBd cBG=c | (3BcB GF D=CB,C | DG2A G2G2- :|
